Costumes/C-story-1.svg

<?xml version="1.0" encoding="utf-8"?>
<!-- Generator: Adobe Illustrator 18.0.0, SVG Export Plug-In . SVG Version: 6.00 Build 0)  -->
<!DOCTYPE svg PUBLIC "-//W3C//DTD SVG 1.1//EN" "http://www.w3.org/Graphics/SVG/1.1/DTD/svg11.dtd">
<svg version="1.1" id="Layer_2" xmlns="http://www.w3.org/2000/svg" xmlns:xlink="http://www.w3.org/1999/xlink" x="0px" y="0px"
	 viewBox="0 0 44.9 52.5" enable-background="new 0 0 44.9 52.5" xml:space="preserve">
<g>
	<path fill="#53AD4E" d="M44.9,35.9c-0.5-0.9-1.7-1.3-2.6-0.8c-2,1.1-4,2.3-6,3.5c-0.1,0.1-0.2,0.3-0.3,0.5c-0.2,0.5-0.4,1-0.7,1.4
		c-1.7,1.7-3.9,2.6-6.2,3.2c-1.3,0.4-2.6,0.4-4,0.2c-2.1-0.3-3.9-1.2-5.9-2c-0.5-0.2-1-0.4-1.3-0.8c-1-1.1-2-2.2-2.8-3.4
		c-1.6-2.2-2.3-4.8-2.9-7.4c-0.5-2.4-0.8-4.9-0.7-7.3c0.2-3.7,1.2-7.4,2.6-10.9c0.6-1.4,1.4-2.8,2.6-3.7c3.5-2.6,7.5-3.3,11.8-2.6
		c1.9,0.3,3.6,1.1,5,2.5c1.3,1.2,2.3,2.4,2.5,4.2c0.1,0.9,0.2,1.8,0.2,2.7c0,0.7,0.4,1,1.1,1.1c0.6,0,1.2-0.1,1.8,0
		c1,0.1,1.8-0.3,2.5-1c0.3-0.3,0.7-0.6,1-0.9c0.5-0.5,1.2-1,1.3-1.6c0.2-1.8,0.1-3.5,0.1-5.3c0-2,0.1-3.9,0.1-5.9
		c0-0.8-0.2-1.1-1-1.2c-1.4-0.1-2.9-0.3-3.8,1.2C39.4,1.9,39.2,2,39,2.1c-0.3,0.4-0.6,0.5-1.1,0.2C35.9,1,33.7,0.1,31.2,0
		c-1,0-1.9,0-2.9,0c-2.9-0.1-5.8,0.3-8.6,1.1c-2.8,0.8-5.4,2.3-7.6,4.2C11.2,6.1,10.5,7,9.7,7.8c-2.2,1.9-4.1,4-5.7,6.4
		c-2.3,3.5-3.3,7.4-3.8,11.6c-0.5,4.1-0.1,8.1,1.7,11.9c1.9,3.9,4.4,7.4,8,9.8c1.8,1.2,3.7,2.2,5.6,3.2c2.7,1.3,5.5,2,8.5,1.7
		c1.5-0.1,3-0.5,4.5-0.8c3.3-0.7,6-2.4,8.4-4.8c1-1,2-2.2,3.1-3.1c2.4-2,3.9-4.5,4.8-7.4C44.9,36.2,44.9,36,44.9,35.9z M43,12.8
		l0.1,0.2c-1,0.8-1.9,1.8-3.1,2.4c-0.6,0.3-1.5,0.1-2.5,0.1c0.6-0.5,1.1-1,1.6-1.4c0.2-0.1,0.4-0.2,0.5-0.4
		C40.5,12.5,41.8,12.8,43,12.8z M40.4,1.8v2c-0.5-0.3-0.9-0.6-1.5-1C39.5,2.5,39.9,2.2,40.4,1.8z M23.8,3.8c1.3-0.2,2.7-0.4,4-0.5
		c3.3-0.1,6.3,0.8,9.1,2.5c2,1.2,2.8,3.2,3.6,5.3c0.3,0.7,0.2,1.2-0.6,1.7c-1,0.6-1.9,1.4-2.9,2.2c-0.1-0.7-0.2-1.3-0.3-1.9
		c0-1.3-0.5-2.3-1.3-3.4c-2.1-2.9-5.1-4.3-8.6-4.5c-4.1-0.2-4.7-0.1-8.8,1.5C19.7,5.2,21.6,4.2,23.8,3.8z M28.8,50.9
		c-1.8,0.4-3.6,0.9-5.4,1c-1.5,0.1-3.2-0.2-4.7-0.6c-3.1-0.8-5.9-2.5-8.4-4.4c-2.1-1.6-4-3.4-5.6-5.7c-1.3-1.9-2.2-3.9-3-6
		c-1-2.7-1.1-5.5-0.8-8.3c0.2-2.7,0.5-5.4,1.4-8c0.5-1.3,1.2-2.5,2-3.7c0.4-0.8,1-1.5,1.7-2.1C5.5,14.6,5,16,4.7,17.5
		c-0.7,2.9-1,5.8-0.7,8.8c0.2,2.5,1.2,4.7,2.1,6.9c1.5,3.8,3.7,7.1,6.9,9.6c2.6,2,5.4,3.7,8.5,4.8c3.7,1.4,7.4,1,11,0.6
		c0.9-0.1,1.8-0.5,2.9-0.9C33.4,49.2,31.2,50.3,28.8,50.9z M31,43.9c0.9-0.5,1.8-0.9,2.6-1.3c1.3-0.7,2.4-1.6,3-3
		c0.2-0.4,0.6-0.7,1-1c1.7-1.1,3.5-2.2,5.3-3.3C40.6,39.6,34.4,44,31,43.9z"/>
	<path fill="#FFFFFF" d="M42.9,35.2c-2.3,4.3-8.5,8.8-11.9,8.6c0.9-0.5,1.8-0.9,2.6-1.3c1.3-0.7,2.4-1.6,3-3c0.2-0.4,0.6-0.7,1-1
		C39.4,37.4,41.1,36.4,42.9,35.2z"/>
	<path fill="#FFFFFF" d="M43.2,13c-1,0.8-1.9,1.8-3.1,2.4c-0.6,0.3-1.5,0.1-2.5,0.1c0.6-0.5,1.1-1,1.6-1.4c0.2-0.1,0.4-0.2,0.5-0.4
		c0.9-1.2,2.2-1,3.4-0.9L43.2,13z"/>
	<path fill="#FFFFFF" d="M40.4,1.8v2c-0.5-0.3-0.9-0.6-1.5-1C39.5,2.5,39.9,2.2,40.4,1.8z"/>
	<path fill="#FFFFFF" d="M39.9,12.8c-1,0.6-1.9,1.4-2.9,2.2c-0.1-0.7-0.2-1.3-0.3-1.9c0-1.3-0.5-2.3-1.3-3.4
		c-2.1-2.9-5.1-4.3-8.6-4.5c-4.1-0.2-4.7-0.1-8.8,1.5c1.6-1.4,3.5-2.5,5.7-2.9c1.3-0.2,2.7-0.4,4-0.5c3.3-0.1,6.3,0.8,9.1,2.5
		c2,1.2,2.8,3.2,3.6,5.3C40.8,11.8,40.7,12.3,39.9,12.8z"/>
	<path fill="#FFFFFF" d="M35.4,47.3c-1.9,1.9-4.2,2.9-6.6,3.5c-1.8,0.4-3.6,0.9-5.4,1c-1.5,0.1-3.2-0.2-4.7-0.6
		c-3.1-0.8-5.9-2.5-8.4-4.4c-2.1-1.6-4-3.4-5.6-5.7c-1.3-1.9-2.2-3.9-3-6c-1-2.7-1.1-5.5-0.8-8.3c0.2-2.7,0.5-5.4,1.4-8
		c0.5-1.3,1.2-2.5,2-3.7c0.4-0.8,1-1.5,1.7-2.1C5.5,14.6,5,16,4.7,17.5c-0.7,2.9-1,5.8-0.7,8.8c0.2,2.5,1.2,4.7,2.1,6.9
		c1.5,3.8,3.7,7.1,6.9,9.6c2.6,2,5.4,3.7,8.5,4.8c3.7,1.4,7.4,1,11,0.6C33.4,48.1,34.3,47.7,35.4,47.3z"/>
</g>
</svg>

<?xml version="1.0" encoding="UTF-8" standalone="no"?>
<!-- Generator: Adobe Illustrator 18.0.0, SVG Export Plug-In . SVG Version: 6.00 Build 0)  -->

<svg
   version="1.1"
   id="Layer_2"
   x="0px"
   y="0px"
   viewBox="0 0 44.898692 52.484016"
   enable-background="new 0 0 44.9 52.5"
   xml:space="preserve"
   sodipodi:docname="C-story-1.svg"
   width="44.898693"
   height="52.484016"
   xmlns:inkscape="http://www.inkscape.org/namespaces/inkscape"
   xmlns:sodipodi="http://sodipodi.sourceforge.net/DTD/sodipodi-0.dtd"
   xmlns="http://www.w3.org/2000/svg"
   xmlns:svg="http://www.w3.org/2000/svg"><defs
   id="defs19" /><sodipodi:namedview
   id="namedview17"
   pagecolor="#ffffff"
   bordercolor="#000000"
   borderopacity="0.25"
   inkscape:showpageshadow="2"
   inkscape:pageopacity="0.0"
   inkscape:pagecheckerboard="0"
   inkscape:deskcolor="#d1d1d1" />
<g
   id="g14"
   transform="translate(-0.00130564,0.01510153)">
	<path
   fill="#53ad4e"
   d="m 44.9,35.9 c -0.5,-0.9 -1.7,-1.3 -2.6,-0.8 -2,1.1 -4,2.3 -6,3.5 -0.1,0.1 -0.2,0.3 -0.3,0.5 -0.2,0.5 -0.4,1 -0.7,1.4 -1.7,1.7 -3.9,2.6 -6.2,3.2 -1.3,0.4 -2.6,0.4 -4,0.2 -2.1,-0.3 -3.9,-1.2 -5.9,-2 -0.5,-0.2 -1,-0.4 -1.3,-0.8 -1,-1.1 -2,-2.2 -2.8,-3.4 -1.6,-2.2 -2.3,-4.8 -2.9,-7.4 -0.5,-2.4 -0.8,-4.9 -0.7,-7.3 0.2,-3.7 1.2,-7.4 2.6,-10.9 0.6,-1.4 1.4,-2.8 2.6,-3.7 3.5,-2.6 7.5,-3.3 11.8,-2.6 1.9,0.3 3.6,1.1 5,2.5 1.3,1.2 2.3,2.4 2.5,4.2 0.1,0.9 0.2,1.8 0.2,2.7 0,0.7 0.4,1 1.1,1.1 0.6,0 1.2,-0.1 1.8,0 1,0.1 1.8,-0.3 2.5,-1 0.3,-0.3 0.7,-0.6 1,-0.9 0.5,-0.5 1.2,-1 1.3,-1.6 C 44.1,11 44,9.3 44,7.5 44,5.5 44.1,3.6 44.1,1.6 44.1,0.8 43.9,0.5 43.1,0.4 41.7,0.3 40.2,0.1 39.3,1.6 39.4,1.9 39.2,2 39,2.1 38.7,2.5 38.4,2.6 37.9,2.3 35.9,1 33.7,0.1 31.2,0 30.2,0 29.3,0 28.3,0 25.4,-0.1 22.5,0.3 19.7,1.1 16.9,1.9 14.3,3.4 12.1,5.3 11.2,6.1 10.5,7 9.7,7.8 7.5,9.7 5.6,11.8 4,14.2 1.7,17.7 0.7,21.6 0.2,25.8 c -0.5,4.1 -0.1,8.1 1.7,11.9 1.9,3.9 4.4,7.4 8,9.8 1.8,1.2 3.7,2.2 5.6,3.2 2.7,1.3 5.5,2 8.5,1.7 1.5,-0.1 3,-0.5 4.5,-0.8 3.3,-0.7 6,-2.4 8.4,-4.8 1,-1 2,-2.2 3.1,-3.1 2.4,-2 3.9,-4.5 4.8,-7.4 0.1,-0.1 0.1,-0.3 0.1,-0.4 z M 43,12.8 43.1,13 c -1,0.8 -1.9,1.8 -3.1,2.4 -0.6,0.3 -1.5,0.1 -2.5,0.1 0.6,-0.5 1.1,-1 1.6,-1.4 0.2,-0.1 0.4,-0.2 0.5,-0.4 0.9,-1.2 2.2,-0.9 3.4,-0.9 z m -2.6,-11 v 2 c -0.5,-0.3 -0.9,-0.6 -1.5,-1 0.6,-0.3 1,-0.6 1.5,-1 z m -16.6,2 c 1.3,-0.2 2.7,-0.4 4,-0.5 3.3,-0.1 6.3,0.8 9.1,2.5 2,1.2 2.8,3.2 3.6,5.3 0.3,0.7 0.2,1.2 -0.6,1.7 -1,0.6 -1.9,1.4 -2.9,2.2 -0.1,-0.7 -0.2,-1.3 -0.3,-1.9 0,-1.3 -0.5,-2.3 -1.3,-3.4 C 33.3,6.8 30.3,5.4 26.8,5.2 22.7,5 22.1,5.1 18,6.7 19.7,5.2 21.6,4.2 23.8,3.8 Z m 5,47.1 c -1.8,0.4 -3.6,0.9 -5.4,1 -1.5,0.1 -3.2,-0.2 -4.7,-0.6 -3.1,-0.8 -5.9,-2.5 -8.4,-4.4 -2.1,-1.6 -4,-3.4 -5.6,-5.7 -1.3,-1.9 -2.2,-3.9 -3,-6 -1,-2.7 -1.1,-5.5 -0.8,-8.3 0.2,-2.7 0.5,-5.4 1.4,-8 0.5,-1.3 1.2,-2.5 2,-3.7 0.4,-0.8 1,-1.5 1.7,-2.1 -0.5,1.5 -1,2.9 -1.3,4.4 -0.7,2.9 -1,5.8 -0.7,8.8 0.2,2.5 1.2,4.7 2.1,6.9 1.5,3.8 3.7,7.1 6.9,9.6 2.6,2 5.4,3.7 8.5,4.8 3.7,1.4 7.4,1 11,0.6 0.9,-0.1 1.8,-0.5 2.9,-0.9 -2,1.9 -4.2,3 -6.6,3.6 z m 2.2,-7 c 0.9,-0.5 1.8,-0.9 2.6,-1.3 1.3,-0.7 2.4,-1.6 3,-3 0.2,-0.4 0.6,-0.7 1,-1 1.7,-1.1 3.5,-2.2 5.3,-3.3 -2.3,4.3 -8.5,8.7 -11.9,8.6 z"
   id="path2" />
	<path
   fill="#ffffff"
   d="m 42.9,35.2 c -2.3,4.3 -8.5,8.8 -11.9,8.6 0.9,-0.5 1.8,-0.9 2.6,-1.3 1.3,-0.7 2.4,-1.6 3,-3 0.2,-0.4 0.6,-0.7 1,-1 1.8,-1.1 3.5,-2.1 5.3,-3.3 z"
   id="path4" />
	<path
   fill="#ffffff"
   d="m 43.2,13 c -1,0.8 -1.9,1.8 -3.1,2.4 -0.6,0.3 -1.5,0.1 -2.5,0.1 0.6,-0.5 1.1,-1 1.6,-1.4 0.2,-0.1 0.4,-0.2 0.5,-0.4 0.9,-1.2 2.2,-1 3.4,-0.9 z"
   id="path6" />
	<path
   fill="#ffffff"
   d="m 40.4,1.8 v 2 c -0.5,-0.3 -0.9,-0.6 -1.5,-1 0.6,-0.3 1,-0.6 1.5,-1 z"
   id="path8" />
	<path
   fill="#ffffff"
   d="M 39.9,12.8 C 38.9,13.4 38,14.2 37,15 36.9,14.3 36.8,13.7 36.7,13.1 36.7,11.8 36.2,10.8 35.4,9.7 33.3,6.8 30.3,5.4 26.8,5.2 22.7,5 22.1,5.1 18,6.7 19.6,5.3 21.5,4.2 23.7,3.8 25,3.6 26.4,3.4 27.7,3.3 31,3.2 34,4.1 36.8,5.8 c 2,1.2 2.8,3.2 3.6,5.3 0.4,0.7 0.3,1.2 -0.5,1.7 z"
   id="path10" />
	<path
   fill="#ffffff"
   d="m 35.4,47.3 c -1.9,1.9 -4.2,2.9 -6.6,3.5 -1.8,0.4 -3.6,0.9 -5.4,1 -1.5,0.1 -3.2,-0.2 -4.7,-0.6 -3.1,-0.8 -5.9,-2.5 -8.4,-4.4 -2.1,-1.6 -4,-3.4 -5.6,-5.7 -1.3,-1.9 -2.2,-3.9 -3,-6 -1,-2.7 -1.1,-5.5 -0.8,-8.3 0.2,-2.7 0.5,-5.4 1.4,-8 0.5,-1.3 1.2,-2.5 2,-3.7 0.4,-0.8 1,-1.5 1.7,-2.1 -0.5,1.6 -1,3 -1.3,4.5 -0.7,2.9 -1,5.8 -0.7,8.8 0.2,2.5 1.2,4.7 2.1,6.9 1.5,3.8 3.7,7.1 6.9,9.6 2.6,2 5.4,3.7 8.5,4.8 3.7,1.4 7.4,1 11,0.6 0.9,-0.1 1.8,-0.5 2.9,-0.9 z"
   id="path12" />
</g>
</svg>
